!!!!SEGMENT: pl-kk--kk-i-7--008_anonim--benedictus.krn
!!!cenid: 16xx:798
!!!COM: Anonim
!!!COM-rismid: pe30004985
!!!CDT:
!!!CNT:
!!!OTL: Benedictus
!!!PDT:
!!!AGN: Sacred
!!!SMS-siglum: PL-Kk
!!!SMS-shelfmark: Kk.I.7
!!!SMS-shelfwork: 008 W
!!!SMS-variant:
!!!SMS-altvar:
!!!NIFC-rismid: 300258085
!!!URL-scan: http://repozytorium.nifc.pl/skany/pl-kk-nVt--i-7
!!!ONB-nifc: UWAGA: C (skan 0007, s.9), A (0094, s.9), T(0172, s.8), B(0260, s.10). Następny Vtwór: Agnus Dei
**kern	**text	**kern	**text	**kern	**text	**kern	**text
*part4	*part4	*part3	*part3	*part2	*part2	*part1	*part1
*staff4	*staff4	*staff3	*staff3	*staff2	*staff2	*staff1	*staff1
*I"[BASSVS.]	*	*I"[TENOR.]	*	*I"[ALTVS.]	*	*I"[CANTVS.]	*
*I'B	*	*I'T	*	*I'A	*	*I'S	*
*clefF4	*	*clefC4	*	*clefC4	*	*clefC3	*
*k[b-]	*	*k[b-]	*	*k[b-]	*	*k[b-]	*
*F:	*	*F:	*	*F:	*	*F:	*
*M2/1	*	*M2/1	*	*M2/1	*	*M2/1	*
*met(c|)	*	*met(c|)	*	*met(c|)	*	*met(c|)	*
=1-	=1-	=1-	=1-	=1-	=1-	=1-	=1-
!	!	!	!	!	!	!LO:TX:t=P:problem:kreska pseudotaktowa	!
!	!	!	!	!	!	!LO:TX:t=P:problem:all\right	!
00r	.	1f\	Be-	2.F/	Be-	0r	.
!	!	!	!	!LO:TX:t=P:problem:kreska pseudotaktowa	!	!	!
.	.	.	.	4G/	.	.	.
*	*	*lig	*	*	*	*	*
.	.	1f\	-ne-	4A/	.	.	.
.	.	.	.	4F/	.	.	.
.	.	.	.	4A/	-ne-	.	.
.	.	.	.	4B-/	.	.	.
=2-	=2-	=2-	=2-	=2-	=2-	=2-	=2-
*	*	*	*	*2\right	*	*	*
!LO:TX:t=P:problem:kreska pseudotaktowa	!	!	!	!	!	!	!
.	.	1e\	.	(2c\	-di-	2.c/	Be-
!	!	!	!	!LO:TX:t=P:problem:kreska pseudotaktowa	!	!	!
.	.	.	.	2C/)	.	.	.
.	.	.	.	.	.	4c/	-ne-
!	!	!	!	!LO:TX:t=P:problem:kreska pseudotaktowa	!	!	!
*	*	*Xlig	*	*	*	*	*
*	*	*lig	*	*	*	*	*
!	!	!	!	!	!	!LO:TX:t=P:problem:kreska pseudotaktowa	!
.	.	1d\	.	1G/	-ctus	1B-/	-di-
=3-	=3-	=3-	=3-	=3-	=3-	=3-	=3-
!	!	!	!	!	!	!LO:TX:t=P:problem:oddech jako rozdzielacz słów, przeważnie na wysokości dźwięku poprzedzającego:global	!
!	!	!	!	!	!	!LO:TX:t=P:problem:cezura na 2. linii	!
1F\	Be-	1f\	.	1c\	qui	2A,/	-ctus
*	*	*	*	*	*	*2\right	*
.	.	.	.	.	.	2a\	qui
*2\right	*	*Xlig	*	*	*	*	*
2E\	-ne-	1c\	-di-	4c\	Ve-	2.g\	.
.	.	.	.	4d\	.	.	.
!	!	!	!	!LO:TX:t=P:problem:kreska pseudotaktowa	!	!	!
2.C/	-di-	.	.	2.e\	.	.	.
!	!	!	!	!	!	!LO:TX:t=P:problem:kreska pseudotaktowa	!
.	.	.	.	.	.	4f\	.
=4-	=4-	=4-	=4-	=4-	=4-	=4-	=4-
.	.	1c\	-ctus	.	.	2.e\	Ve-
4D/	.	.	.	4d\	.	.	.
!	!	!	!	!LO:SIC:v:custos:B-	!	!	!
4E/	.	.	.	1c\	.	.	.
4C/	.	.	.	.	.	4f\	.
*	*	*lig	*	*	*	*	*
0G\	.	1d\	.	.	.	0g\	.
!	!	!	!	!LO:LB:g=original	!	!	!
.	.	.	.	4B-\	.	.	.
!	!	!	!	!LO:TX:t=P:problem:kreska pseudotaktowa	!	!	!
.	.	.	.	4A\	.	.	.
=5-	=5-	=5-	=5-	=5-	=5-	=5-	=5-
.	.	1e\	.	1B-\	.	.	.
*	*	*Xlig	*	*	*	*	*
!	!	!LO:TX:t=P:problem:cezura na 4. linii	!	!	!	!	!
!LO:TX:t=P:problem:kreska pseudotaktowa	!	!LO:TX:t=P:problem:kreska pseudotaktowa	!	!	!	!LO:TX:t=P:problem:kreska pseudotaktowa	!
1F\	-ctus	1f\,	.	2c\	-nit	1a\	-nit
!	!	!	!	!LO:TX:t=P:problem:kreska pseudotaktowa	!	!	!
.	.	.	.	2A\	qui	.	.
=6-	=6-	=6-	=6-	=6-	=6-	=6-	=6-
!	!	!LO:TX:t=P:problem:cezura na 2. linii	!	!	!	!	!
1r	.	1A\,	qui	1c\	Ve-	1r	.
1E\	qui	1c\	Ve-	2.G/	-nit	2e\	in-
.	.	.	.	.	.	2.g\	.
!	!	!	!	!LO:TX:t=P:problem:kreska pseudotaktowa	!	!	!
.	.	.	.	4c\	.	.	.
=7-	=7-	=7-	=7-	=7-	=7-	=7-	=7-
*	*	*lig	*	*lig	*	*	*
!	!	!	!	!	!	!LO:TX:t=P:problem:kreska pseudotaktowa	!
2.G\	.	1d\	.	1B-\	qui	.	.
.	.	.	.	.	.	4d\	-no-
.	.	.	.	.	.	2.g\	.
4F\	.	.	.	.	.	.	.
!	!	!	!	!LO:TX:t=P:problem:kreska pseudotaktowa	!	!	!
4E\	.	1e\	.	1c\	.	.	.
4D/	.	.	.	.	.	4f\	.
!LO:TX:t=P:problem:kreska pseudotaktowa	!	!	!	!	!	!	!
2C/	Ve-	.	.	.	.	4e\	.
.	.	.	.	.	.	4f\	.
!	!	!	!	!	!	!LO:TX:t=P:problem:kreska pseudotaktowa	!
*	*	*Xlig	*	*Xlig	*	*	*
=8-	=8-	=8-	=8-	=8-	=8-	=8-	=8-
*	*	*lig	*	*	*	*	*
4G\	.	1d\	.	4B-\	Ve-	4g\	.
4A\	.	.	.	4c\	.	4f\	.
4B-\	.	.	.	1d\	.	1f\	.
4A\	.	.	.	.	.	.	.
4G\	.	1B-\	.	.	.	.	.
4F\	.	.	.	.	.	.	.
2G\	.	.	.	4c\	.	2e\	-mi-
.	.	.	.	4B-\	.	.	.
!	!	!	!	!	!	!LO:TX:t=P:problem:kreska pseudotaktowa	!
*	*	*Xlig	*	*	*	*	*
=9-	=9-	=9-	=9-	=9-	=9-	=9-	=9-
!	!	!LO:TX:t=P:problem:cezura na 3. linii	!	!	!	!	!
!LO:TX:t=P:problem:kreska pseudotaktowa	!	!LO:TX:t=P:problem:kreska pseudotaktowa	!	!	!	!	!
1F\	-nit	1c\,	-nit	2A/	-nit,	2f\	-ne
!	!	!	!	!LO:TX:t=P:problem:kreska pseudotaktowa	!	!LO:TX:t=P:problem:kreska pseudotaktowa	!
.	.	.	.	2c\	in	2F/	in
0r	.	1f\	in	2.F/	no-	2.A/	no-
!	!	!	!	!LO:TX:t=P:problem:kreska pseudotaktowa	!	!	!
.	.	.	.	4G/	.	4B-/	.
=10-	=10-	=10-	=10-	=10-	=10-	=10-	=10-
*	*	*lig	*	*	*	*	*
.	.	1f\	no-	4A/	.	4c/	.
.	.	.	.	4F/	.	4A/	.
.	.	.	.	1B-\	.	4d\	.
!	!	!	!	!	!	!LO:SIC:v:custos:f	!
!	!	!	!	!	!	!LO:TX:t=P:problem:kreska pseudotaktowa	!
.	.	.	.	.	.	4e\	.
!	!	!	!	!	!	!LO:LB:g=original	!
!LO:TX:t=P:problem:kreska pseudotaktowa	!	!	!	!	!	!	!
1r	.	[1c\	.	.	.	2.f\	.
.	.	.	.	4A/	-mi-	.	.
.	.	.	.	4G/	.	4f\	-mi-
!	!	!	!	!LO:TX:t=P:problem:kreska pseudotaktowa	!	!	!
*	*	*Xlig	*	*	*	*	*
=11-	=11-	=11-	=11-	=11-	=11-	=11-	=11-
2FF/	in	1c\]	.	4A/	-ne	2a\	-ne
.	.	.	.	4c\	.	.	.
!	!	!	!	!	!	!LO:TX:t=P:problem:kreska pseudotaktowa	!
2.F\	.	.	.	2.A/	-Do-	[y2f\	Do-
!	!	!	!	!	!	!LO:N:xstem:cue	!
.	.	2.A/	.	.	.	4f\]	.
4F\	.	.	.	4A/	-mi-	4f\	-mi-
!	!	!	!	!	!	!LO:TX:t=P:problem:kreska pseudotaktowa	!
1D\	no-	.	.	[y2F/	-ni	2d\	-ni
.	.	4A/	-mi-	.	.	.	.
=12-	=12-	=12-	=12-	=12-	=12-	=12-	=12-
!	!	!LO:TX:t=P:problem:kreska pseudotaktowa	!	!LO:TX:t=P:problem:kreska pseudotaktowa	!	!	!
!	!	!	!	!LO:N:xstem:cue	!	!	!
.	.	1F/	-ne	4F/]	.	2d\	in
*	*	*	*	*	*ij	*	*
.	.	.	.	4D/	in	.	.
!LO:TX:t=P:problem:kreska pseudotaktowa	!	!	!	!	!	!	!
2BB-/	-mi-	.	.	1d\	no-	2.g\	no-
*	*	*lig	*	*	*	*	*
2GG/	-ne	1B-\	Do-	.	.	.	.
.	.	.	.	.	.	4g\	-mi-
!	!	!	!	!	!	!LO:TX:t=P:problem:kreska pseudotaktowa	!
*	*ij	*	*	*	*	*	*
1G\	in	.	.	2d\	-mi-	2a\	-ne
=13-	=13-	=13-	=13-	=13-	=13-	=13-	=13-
!	!	!LO:SIC:v:custos:G	!	!LO:TX:t=P:problem:kreska pseudotaktowa	!	!	!
.	.	1A\	.	1d\	-ne	2.d\	Do-
2F\	no-	.	.	.	.	.	.
.	.	.	.	.	.	8e\L	.
.	.	.	.	.	.	8f\J	.
*	*	*Xlig	*	*	*	*	*
!	!	!LO:LB:g=original	!	!	!	!	!
*	*	*lig	*	*	*	*lig	*
2G\	-mi-	1G/	.	1.d\	Do-	1g\	.
!LO:TX:t=P:problem:kreska pseudotaktowa	!	!	!	!	!	!	!
2GG/	-ne	.	.	.	.	.	.
*	*Xij	*	*	*	*	*	*
=14-	=14-	=14-	=14-	=14-	=14-	=14-	=14-
4D/	Do-	1A\	.	.	.	1.f\	.
4E\	.	.	.	.	.	.	.
4F\	.	.	.	2c\	.	.	.
4FF/	.	.	.	.	.	.	.
*	*	*Xlig	*	*	*	*Xlig	*
2.C/	.	2.G/	.	0c\;<	mi-	.	-mi-
.	.	.	.	.	.	2e\	.
!LO:TX:t=P:problem:kreska pseudotaktowa	!	!	!	!	!	!	!
4C/	-mi-	4G/	-mi-	.	.	.	.
=15-	=15-	=15-	=15-	=15-	=15-	=15-	=15-
!	!	!LO:TX:t=Hoſanna Vt\n Supra.	!	!LO:TX:t=Hoſanna Vt Supra.	!	!	!
1FF/;	-ni.	1F/;	-ni.	.	-ni	1f\;<	-ni.
!	!	!	!	!	!	!LO:TX:t=Oſanna Vt Supra.	!
=-	=-	=-	=-	=-	=-	=-	=-
*-	*-	*-	*-	*-	*-	*-	*-
!!!system-decoration: [(s1,s2,s3,s4)]
!!!RDF**kern: > = above
!!!RDF**kern: < = below
!!!EED: Leszek Kubiak
!!!EST: 2021-03-08
!!!ENC:Kamil Watkowski
!!!END:2021-02-20
